!!!!SEGMENT: pl-sa--l-1643--069_anonim--factum-es-silentium-in-caelo.krn
!!!cenid: 16xx:1427
!!!COM: Anonim
!!!COM-rismid: pe30004985
!!!CDT:
!!!CNT:
!!!OTL: Factum es silentium in caelo
!!!PDT:
!!!AGN: Sacred
!!!SMS-siglum: PL-SA
!!!SMS-shelfmark: L 1643
!!!SMS-shelfwork: 069 W
!!!SMS-variant:
!!!SMS-altvar:
!!!NIFC-rismid: 1001064100
!!!URL-scan: http://repozytorium.nifc.pl/skany/pl-sa-nut--l1643
!!!ONB-nifc: UWAGA: 8 ksiąg. Primi chori: 1mus Cantus (x), C 2dus (115), C 3tius (42-43), Bassus (x); Secondi chori: Primus Cantus (x), C 2dus (22-23), Altus (x), Bassus (127-128). UWAGA: Nie dodawać pustych linii, chyba że w rękopisie pojawiają się dodatkowe oznaczenia dotyczące pełnej obsady (a 4, a 8 itp.)
!!!key:
**kern	**text	**kern	**text	**kern	**text	**kern	**text
*group2	*	*group2	*	*group1	*	*group1	*
*part4	*part4	*part3	*part3	*part2	*part2	*part1	*part1
*staff4	*staff4	*staff3	*staff3	*staff2	*staff2	*staff1	*staff1
*Iempty	*	*Iempty	*	*Iempty	*	*Iempty	*
*I"Bassus 2di Chori	*	*I"Cantus 2dus 2di Chori	*	*I"Cantus 3tius Primi Chori	*	*I"Cantus 2dus Primi Chori	*
*I'[Coro 2 B]	*	*I'[Coro 2 C 2]	*	*I'[Coro 1 C 3]	*	*I'[Coro 1 C 2]	*
*clefC3	*	*clefC1	*	*clefC2	*	*clefC1	*
*k[b-]	*	*k[b-]	*	*k[b-]	*	*k[b-]	*
*F:	*	*F:	*	*F:	*	*F:	*
*M2/2	*	*M2/2	*	*M2/2	*	*M2/2	*
*met(C|)	*	*met(C|)	*	*met(C|)	*	*met(C|)	*
=1-	=1-	=1-	=1-	=1-	=1-	=1-	=1-
1r	.	1r	.	2.a\	Fa-	2.a\	Fa-
.	.	.	.	4a\	-ctum	4a\	-ctum
=2-	=2-	=2-	=2-	=2-	=2-	=2-	=2-
2.f\	Fa-	2.a\	Fa-	1f	eſt	1a	eſt
4f\	-ctum	4a\	-ctum	.	.	.	.
=3-	=3-	=3-	=3-	=3-	=3-	=3-	=3-
2f\	eſt	2a\	eſt	1f	si-	1a	ſi-
2f\	Si-	2cc\	si-	.	.	.	.
=4-	=4-	=4-	=4-	=4-	=4-	=4-	=4-
2.c/	-len-	2.cc\	-len-	2.g\	-len-	2.g/	-len-
4c/	-ti-	4cc\	-ti-	4g\	-ti-	4g/	-ci-
=5-	=5-	=5-	=5-	=5-	=5-	=5-	=5-
2f\	-um	2a\	-um	2f\	-um	2a\	-um,
2r	.	2r	.	2r	.	2r	.
=6-	=6-	=6-	=6-	=6-	=6-	=6-	=6-
2r	.	2ryy	.	0r	.	0r	.
2f\	Si-	2a\	si-	.	.	.	.
=7-	=7-	=7-	=7-	=7-	=7-	=7-	=7-
2.B-/	-len-	2.b-\	-len-	.	.	.	.
4B-/	-ti-	4b-\	-ti-	.	.	.	.
=8-	=8-	=8-	=8-	=8-	=8-	=8-	=8-
2f\	-um	2a\	-um	2r	.	2r	.
2r	.	2r	.	2a\	si-	2cc\	ſi-
=9-	=9-	=9-	=9-	=9-	=9-	=9-	=9-
1r	.	1r	.	2.g\	-len-	2.cc\	-len-
.	.	.	.	4g\	-ti-	4cc\	-ci-
=10-	=10-	=10-	=10-	=10-	=10-	=10-	=10-
2r	.	2r	.	2a\	-um	2cc\	-um,
2f\	in	2a\	in	2r	.	2r	.
=11-	=11-	=11-	=11-	=11-	=11-	=11-	=11-
4B-/	cae-	1b-	ce-	1r	.	1r	.
4c/	.	.	.	.	.	.	.
4d\	.	.	.	.	.	.	.
4e\	.	.	.	.	.	.	.
=12-	=12-	=12-	=12-	=12-	=12-	=12-	=12-
2f\	-lo	2a\	-lo	2r	.	2r	.
2r	.	2r	.	2a\	in	2cc\	in
=13-	=13-	=13-	=13-	=13-	=13-	=13-	=13-
1r	.	1r	.	2f\	.	4b-\	cae-
.	.	.	.	.	.	4a\	.
.	.	.	.	2g\	cae-	2g/	.
=14-	=14-	=14-	=14-	=14-	=14-	=14-	=14-
2r	.	2r	.	2f\	-lo	2a\	-lo
2F/	dum	2cc\	dum	2r	.	2r	.
=15-	=15-	=15-	=15-	=15-	=15-	=15-	=15-
1B-	dra-	1b-	d[ra]-	1r	.	1r	.
=16-	=16-	=16-	=16-	=16-	=16-	=16-	=16-
2F/	-co	2cc\	-co	2r	.	2r	.
2r	.	2r	.	2a\	dum	2a\	dum
=17-	=17-	=17-	=17-	=17-	=17-	=17-	=17-
1r	.	1r	.	2.f\	dra-	1b-	dra-
.	.	.	.	4g\	.	.	.
=18-	=18-	=18-	=18-	=18-	=18-	=18-	=18-
2r	.	2r	.	2a\	-co	2a\	-co
2f\	co-	2a\	com-	2r	.	2r	.
!LO:SIC:v:t=custos f	!	!	!	!LO:SIC:v:t=custos a	!	!	!
!LO:LB:g=original	!	!	!	!LO:LB:g=original	!	!	!
=19-	=19-	=19-	=19-	=19-	=19-	=19-	=19-
2.f\	-mit-	2.a\	-mit-	0r	.	0r	.
4f\	-te-	4a\	-te-	.	.	.	.
=20-	=20-	=20-	=20-	=20-	=20-	=20-	=20-
!	!	!LO:TX:t=P:problem=niewyraźne źródło	!	!	!	!	!
2B-/	-ret	2f/	-ret	.	.	.	.
2c/	be-	2e/	bel-	.	.	.	.
=21-	=21-	=21-	=21-	=21-	=21-	=21-	=21-
2F/	-lum	2f/	-lum	2r	.	2r	.
2r	.	2r	.	2a\	com-	2a\	co-
!	!	!	!	!	!	!LO:SIC:v:t=custos a	!
!	!	!	!	!	!	!LO:LB:g=original	!
=22-	=22-	=22-	=22-	=22-	=22-	=22-	=22-
0r	.	0r	.	2.f\	-mit-	2.a\	-mit-
.	.	.	.	4f\	-te-	4a\	-te-
=23-	=23-	=23-	=23-	=23-	=23-	=23-	=23-
.	.	.	.	2d/	-ret	2f/	-ret
.	.	.	.	2c/	bel-	2e/	bel-
=24-	=24-	=24-	=24-	=24-	=24-	=24-	=24-
2r	.	2r	.	2c/	-lum,	2f/	-lum
2f\	et	2a\	et	2r	.	2r	.
=25-	=25-	=25-	=25-	=25-	=25-	=25-	=25-
!	!	!LO:TX:t=P:problem=kropka w następnym systemie	!	!	!	!	!
2.c/	Mi-	2.g/	mi-	1r	.	1r	.
!	!	!LO:SIC:v:t=custos g	!	!	!	!	!
!	!	!LO:LB:g=original	!	!	!	!	!
4c/	-cha-	4g/	-cha-	.	.	.	.
=26-	=26-	=26-	=26-	=26-	=26-	=26-	=26-
2f\	-el	2a\	-el	2r	.	2r	.
2r	.	2r	.	2a\	pu-	2a\	pu-
=27-	=27-	=27-	=27-	=27-	=27-	=27-	=27-
1r	.	1r	.	2f\	-gna-	2a\	-gna-
.	.	.	.	4g\	-vit	4g/	-vit
.	.	.	.	4a\	cum	4f/	cum
=28-	=28-	=28-	=28-	=28-	=28-	=28-	=28-
2r	.	2r	.	1g	e-	1g	e-
2c/	pu-	2cc\	pu-	.	.	.	.
=29-	=29-	=29-	=29-	=29-	=29-	=29-	=29-
2f\	-gna-	2a\	-gna-	2f\,>	-o	2a\,>	-o
4f\	-vit	4a\	-vit	2f\	pu-	2a\	pu-
4f\	cum	4a\	cum	.	.	.	.
=30-	=30-	=30-	=30-	=30-	=30-	=30-	=30-
1c	e-	1g	e-	2g\	-gna-	2g/	-gna-
.	.	.	.	4g\	-vit	4g/	-vit
.	.	.	.	4g\	cum	4dd\	cum
=31-	=31-	=31-	=31-	=31-	=31-	=31-	=31-
1F	-o	1a	-o,	1f	e-	1a	e-
=32-	=32-	=32-	=32-	=32-	=32-	=32-	=32-
2r	.	2r	.	2g\	-o	2g/	-o
2f\	et	2a\	et	2r	.	2r	.
=33-	=33-	=33-	=33-	=33-	=33-	=33-	=33-
4B-/	fe-	1b-	fe-	1r	.	1r	.
4c/	.	.	.	.	.	.	.
4d\	.	.	.	.	.	.	.
4e\	.	.	.	.	.	.	.
=34-	=34-	=34-	=34-	=34-	=34-	=34-	=34-
2f\	-cit	2a\	-cit	2r	.	2r	.
2r	.	2r	.	2a\	vi-	2a\	vi-
=35-	=35-	=35-	=35-	=35-	=35-	=35-	=35-
1r	.	1r	.	2.f\	-cto-	2.b-\	-cto-
.	.	.	.	4f\	-ri-	4b-\	-ri-
!	!	!	!	!LO:SIC:v:t=custos a	!	!	!
!	!	!	!	!LO:LB:g=original	!	!	!
=36-	=36-	=36-	=36-	=36-	=36-	=36-	=36-
4r	.	4r	.	2a\	-am	2a\	-am
4f\	Vi-	4a\	Vi-	.	.	.	.
!LO:SIC:v:t=custos f	!	!	!	!	!	!	!
!LO:LB:g=original	!	!	!	!	!	!	!
4.f\	-cto-	4.cc\	-cto-	4r	.	4r	.
.	.	.	.	4f\	vi-	4a\	vi-
8f\	-ri-	8cc\	-ri-	.	.	.	.
!	!	!	!	!	!	!LO:SIC:v:t=custos cc	!
!	!	!	!	!	!	!LO:LB:g=original	!
=37-	=37-	=37-	=37-	=37-	=37-	=37-	=37-
4f\	-am	4cc\,>	-am	4.a\	-cto-	4.cc\	-cto-
4F/	Vi-	4a\	vi-	.	.	.	.
.	.	.	.	8a\	-ri-	8cc\	-ri-
4.f\	-cto-	4.cc\	-cto-	4a\	-am	4cc\,>	-am
.	.	.	.	4f\	vi-	4a\	vi-
8f\	-ri-	8cc\	-ri-	.	.	.	.
=38-	=38-	=38-	=38-	=38-	=38-	=38-	=38-
4f\	-am	4cc\,>	-am	4.a\	-cto-	4.cc\	-cto-
4F/	Vi-	4a\	vi-	.	.	.	.
.	.	.	.	8a\	-ri-	8cc\	-ri-
4.f\	-cto-	4.cc\	-cto-	4a\	-am	4cc\	-am
.	.	.	.	4f\	vi-	4a\	vi-
8f\	-ri-	8cc\	-ri-	.	.	.	.
=39-	=39-	=39-	=39-	=39-	=39-	=39-	=39-
4f\	-am	4cc\,>	-am	2.a\	-cto-	2.cc\	-cto-
4F/	Vi-	4a\	vi-	.	.	.	.
4.f\	-cto-	4.cc\	-cto-	.	.	.	.
.	.	.	.	4a\	-ri-	4cc\	-ri-
8f\	-ri-	8cc\	-ri-	.	.	.	.
=40-	=40-	=40-	=40-	=40-	=40-	=40-	=40-
!LO:TX:t=P:problem=kreska pseudotaktowa przerywana	!	!	!	!	!	!	!
1f	-am	1cc	-am	1a	-am	1cc	-am,
=41-	=41-	=41-	=41-	=41-	=41-	=41-	=41-
0r	.	0r	.	0r	.	0r	.
=42-	=42-	=42-	=42-	=42-	=42-	=42-	=42-
1r	.	1r	.	1r	.	1r	.
=43-	=43-	=43-	=43-	=43-	=43-	=43-	=43-
2r	.	2r	.	2r	.	2r	.
4f\	Mil-	4a\	mil-	4a\	mil-	4cc\	Mil-
8f\L	-li-	8a\L	-li-	8a\L	-li-	8cc\L	-li-
8f\J	-a	8a\J	-a	8a\J	-a	8cc\J	-a
!	!	!LO:SIC:v:t=custos b-	!	!	!	!	!
!	!	!LO:PB:g=original	!	!	!	!	!
=44-	=44-	=44-	=44-	=44-	=44-	=44-	=44-
4.B-/	mil-	4.b-\	mil-	4.f\	mil-	4.dd\	mi-
8B-/	-li-	8b-\	-li-	8f\	-li-	8dd\	-li-
4f\	-im	4cc\	-um	4a\	-um	4cc\	-um
4f\	di-	4a\	di-	4a\	di-	4cc\	di-
=45-	=45-	=45-	=45-	=45-	=45-	=45-	=45-
4B-/	-cen-	4b-\	-cen-	4f\	-cen-	4b-\	-cen-
4f\	-ti-	4cc\	-ti-	4f\	-ti-	4a\	-ci-
!	!	!	!	!LO:SIC:v:t=custos e	!	!	!
!	!	!	!	!LO:LB:g=original	!	!	!
2c/	-um	2cc\	-um,	2e/	-um	2g/	-um,
=46-	=46-	=46-	=46-	=46-	=46-	=46-	=46-
0r	.	0r	.	0r	.	0r	.
=47-	=47-	=47-	=47-	=47-	=47-	=47-	=47-
1r	.	1r	.	1r	.	1r	.
=48-	=48-	=48-	=48-	=48-	=48-	=48-	=48-
2r	.	2r	.	2r	.	2r	.
!LO:SIC:v:t=custos g	!	!	!	!	!	!	!
!LO:LB:g=original	!	!	!	!	!	!	!
4g\	mil-	4b-\	mil-	4g\	mil-	4dd\	mil-
8g\L	-li-	8b-\L	-li-	8g\L	-li-	8dd\L	-li-
8g\J	-a	8b-\J	-a	8g\J	-a	8dd\J	-a
=49-	=49-	=49-	=49-	=49-	=49-	=49-	=49-
!	!	!	!	!	!	!LO:TX:t=P:problem=kropka w następnym systemie	!
4.c/	mil-	4.cc\	mil-	4.g\	mil-	4.cc\	mi-
!	!	!	!	!	!	!LO:SIC:v:t=custos cc	!
!	!	!	!	!	!	!LO:LB:g=original	!
8c/	-li-	8cc\	-li-	8g\	-li-	8cc\	-li-
4g\	-um	4dd\	-um	4g\	-um	4b-\	-um
4d\	di-	4dd\	di-	4f\	di-	4dd\	di-
=50-	=50-	=50-	=50-	=50-	=50-	=50-	=50-
4.f\	-cen-	4.a\	-cen-	4.f\	-cen-	4.cc\	-cen-
8f\	-ti-	8a\	-ti-	8f\	-ti-	8cc\	-ti-
2B-/	-um	2b-\	-um,	2f\	-um	2dd\	-um,
=51-	=51-	=51-	=51-	=51-	=51-	=51-	=51-
0r	.	0r	.	0r	.	0r	.
=52-	=52-	=52-	=52-	=52-	=52-	=52-	=52-
1r	.	1r	.	1r	.	1r	.
=53-	=53-	=53-	=53-	=53-	=53-	=53-	=53-
2r	.	2r	.	2r	.	2r	.
4B-/	mil-	4b-\	mil-	4f\	mil-	4dd\	mil-
8B-/L	-li-	8b-\L	-li-	8f\L	-li-	8dd\L	-li-
8B-/J	-a	8b-\J	-a	8f\J	-a	8dd\J	-a
=54-	=54-	=54-	=54-	=54-	=54-	=54-	=54-
4.e-X\	mil-	4.b-\	mil-	4.g\	mil-	4.b-\	mil-
8e-\	-li-	8b-\	-li-	8g\	-li-	8b-\	-li-
4B-/	-um	4b-\	-um	4f\	-um	4dd\	-um
4F/	di-	4a\	di-	4f\	di-	4cc\	di-
=55-	=55-	=55-	=55-	=55-	=55-	=55-	=55-
4c/	-cen-	4g/	-cen-	4g\	-cen-	4cc\	-cen-
4F/	-ti-	4a\	-ti-	4f\	-ti-	4cc\	-ti-
2B-/	-um	2b-\	-um	2f\	-um	2b-\	-um,
!	!	!	!	!LO:SIC:v:t=custos a	!	!	!
!	!	!	!	!LO:PB:g=original	!	!	!
=56-	=56-	=56-	=56-	=56-	=56-	=56-	=56-
0r	.	0r	.	0r	.	0r	.
=57-	=57-	=57-	=57-	=57-	=57-	=57-	=57-
1r	.	1r	.	1r	.	1r	.
=58-	=58-	=58-	=58-	=58-	=58-	=58-	=58-
2r	.	2r	.	2r	.	2r	.
2F/	O-	2a\	O-	2a\	o-	2cc\	o-
=59-	=59-	=59-	=59-	=59-	=59-	=59-	=59-
4.B-/	-mni-	4.b-\	-mni-	4.f\	-mni-	4.dd\	-mni-
8F/	-po-	8a\	-po-	8f\	-po-	8cc\	-po-
!	!	!LO:SIC:v:t=custos b-	!	!	!	!	!
!	!	!LO:LB:g=original	!	!	!	!	!
4B-/	-ten-	4b-\	-ten-	4f\	-ten-	4b-\	-ten-
4f\	-ti	4cc\	-ti	4f\	-ti	4a\	-ti
=60-	=60-	=60-	=60-	=60-	=60-	=60-	=60-
2c/	De-	2cc\	de-	2g\	de-	2g/	de-
2f\	-o	2a\	-o	2f\	-o	2a\	-o
!LO:SIC:v:t=custos B-	!	!	!	!	!	!	!
!LO:LB:g=original	!	!	!	!	!	!	!
=61-	=61-	=61-	=61-	=61-	=61-	=61-	=61-
0r	.	0r	.	0r	.	0r	.
=62-	=62-	=62-	=62-	=62-	=62-	=62-	=62-
1r	.	1r	.	1r	.	1r	.
=63-	=63-	=63-	=63-	=63-	=63-	=63-	=63-
2r	.	2r	.	2r	.	2r	.
!	!	!	!	!	!	!LO:SIC:v:t=custos dd	!
!	!	!	!	!	!	!LO:LB:g=original	!
2B-/	O-	2b-\	o-	2f\	o-	2dd\	o-
=64-	=64-	=64-	=64-	=64-	=64-	=64-	=64-
4D/	-mni-	4.b-\	-mni-	4.g\	-mni-	4.b-\	-mni-
4B-/	-po-	.	.	.	.	.	.
.	.	8b-\	-po-	8f\	-po-	8b-\	-po-
4F/	-ten-	4a\	-ten-	4f\	-ten-	4cc\	-ten-
4B-/	-ti	4b-\	-ti	4f\	-ti	4dd\	-ti
=65-	=65-	=65-	=65-	=65-	=65-	=65-	=65-
2f\	De-	2a\	de-	2f\	de-	2cc\	de-
2B-/	-o	2b-\	-o	2f\	-o	2b-\,>	-o,
=66-	=66-	=66-	=66-	=66-	=66-	=66-	=66-
0r	.	0r	.	4f\	o-	4b-\	o-
.	.	.	.	8f\L	-mni-	8b-\L	-mni-
.	.	.	.	8f\J	-po-	8b-\J	-po-
.	.	.	.	4f\	-ten-	4a\	-ten-
.	.	.	.	4d/	-ti	4g/	-ti
=67-	=67-	=67-	=67-	=67-	=67-	=67-	=67-
!	!	!	!	!	!	!LO:TX:t=P:problem=# below	!
.	.	.	.	2d/	de-	2f#X/	de-
.	.	.	.	2d/	-o	2g/	-o,
!	!	!	!	!LO:SIC:v:t=custos a	!	!	!
!	!	!	!	!LO:LB:g=original	!	!	!
=68-	=68-	=68-	=68-	=68-	=68-	=68-	=68-
4g\	O-	4b-\	o-	0r	.	0r	.
8g\L	-mni-	8b-\L	-mni-	.	.	.	.
8g\J	-po-	8b-\J	-po-	.	.	.	.
4f\	-ten-	4cc\	-ten-	.	.	.	.
4d\	-ti	2dd\	-ti	.	.	.	.
=69-	=69-	=69-	=69-	=69-	=69-	=69-	=69-
2a\	De-	.	.	.	.	.	.
!	!	!LO:TX:t=P:problem=# below	!	!	!	!	!
.	.	4cc#X\	de-	.	.	.	.
2d\	-o	2dd\	-o	.	.	.	.
=70-	=70-	=70-	=70-	=70-	=70-	=70-	=70-
0r	.	0r	.	4a\	o-	4dd\	o-
.	.	.	.	8f\L	-mni-	8dd\L	-mni-
.	.	.	.	8f\J	-po-	8dd\J	-po-
.	.	.	.	4g\	-ten-	4ee-X\	-ten-
.	.	.	.	4d/	-ti	4b-\	-ti
=71-	=71-	=71-	=71-	=71-	=71-	=71-	=71-
.	.	.	.	2f\	de-	2cc\	de-
.	.	.	.	2f\	-o	2b-\	-o,
=72-	=72-	=72-	=72-	=72-	=72-	=72-	=72-
*	*	*	*ij	*	*	*	*
4B-/	O-	4b-\	o-	0r	.	0r	.
8B-/L	-mni-	8b-\L	mni-	.	.	.	.
8B-/J	-po-	8b-\J	-po-	.	.	.	.
4F/	-ten-	4a\	-ten-	.	.	.	.
4G/	-ti	4g/	-ti	.	.	.	.
=73-	=73-	=73-	=73-	=73-	=73-	=73-	=73-
!	!	!LO:TX:t=P:problem=# below	!	!	!	!	!
2d\	De-	2f#X/	de-	.	.	.	.
2G/	-o	2g/,>	-o	.	.	.	.
*	*	*	*Xij	*	*	*	*
=74-	=74-	=74-	=74-	=74-	=74-	=74-	=74-
*	*	*	*ij	*	*	*	*
4B-/	O-	4b-\	o-	4f\	o-	4b-\	o-
8F/L	-mni-	8a\L	-mni-	8f\L	-mni-	8cc\L	-mni-
8F/J	-po-	8a\J	-po-	8f\J	-po-	8cc\J	-po-
4B-/	-ten-	4b-\	-ten-	4f\	-ten-	4b-\	-ten-
4f\	-ti	4a\	-ti	4f\	-ti	4cc\	-ti
=75-	=75-	=75-	=75-	=75-	=75-	=75-	=75-
1c	De-	1g	de-	1g	de-	1cc	De-
!	!	!	!	!	!	!LO:SIC:v:t=custos cc	!
!	!	!	!	!	!	!LO:LB:g=original	!
=76-	=76-	=76-	=76-	=76-	=76-	=76-	=76-
*M3/2	*	*M3/2	*	*M3/2	*	*M3/2	*
2f\	-o	2a\	-o	2f\,>	-o	2cc\,>	-o,
*	*	*	*Xij	*	*	*	*
2r	.	2r	.	2a\	Al-	2cc\	Al-
2r	.	2r	.	2g\	-le-	2cc\	-le-
!LO:SIC:v:t=custos f	!	!LO:SIC:v:t=custos cc	!	!	!	!	!
!LO:PB:g=original	!	!LO:LB:g=original	!	!	!	!	!
=77-	=77-	=77-	=77-	=77-	=77-	=77-	=77-
0.r	.	0.r	.	2.f\	-lu-	2.a\	-lu-
.	.	.	.	4g\	.	4b-\	.
.	.	.	.	2a\	-ia	2cc\	-ia,
=78-	=78-	=78-	=78-	=78-	=78-	=78-	=78-
.	.	.	.	2f\	al-	2b-\	al-
.	.	.	.	2f\	-le-	2a\	-le-
.	.	.	.	2g\	-lu-	2cc\	-lu-
!	!	!	!	!LO:SIC:v:t=custos a	!	!	!
!	!	!	!	!LO:LB:g=original	!	!	!
=79-	=79-	=79-	=79-	=79-	=79-	=79-	=79-
2r	.	2r	.	1a	-ia	1cc	-ia,
2f\	Al-	2ccny\	Al-	.	.	.	.
2c/	-le-	2cc\	-le-	2r	.	2r	.
=80-	=80-	=80-	=80-	=80-	=80-	=80-	=80-
1d	-lu-	2.a\	-lu-	0.r	.	0.r	.
.	.	4b-\	.	.	.	.	.
2A/	-ia	2cc\,>	-ia	.	.	.	.
=81-	=81-	=81-	=81-	=81-	=81-	=81-	=81-
2B-/	Al-	2b-\	al-	.	.	.	.
2G/	-le-	2b-\	-le-	.	.	.	.
2c/	-lu-	2g/	-lu-	.	.	.	.
=82-	=82-	=82-	=82-	=82-	=82-	=82-	=82-
*M2/2	*	*M2/2	*	*M2/2	*	*M2/2	*
*met(C|)	*	*met(C|)	*	*met(C|)	*	*met(C|)	*
2F/	-ia	2a\,>	-ia	2r	.	2r	.
*	*	*	*ij	*	*	*	*
2f\	Al-	2a\	al-	2f\	Al-	2a\	Al-
=83-	=83-	=83-	=83-	=83-	=83-	=83-	=83-
1B-	-le-	4b-\	-le-	2.f\	-le-	4dd\	-le-
.	.	4a\	-lu-	.	.	4cc\	.
.	.	4b-\,>	-ia	.	.	4b-\	.
*	*	*	*Xij	*	*	*	*
.	.	4g/	Al-	4f\	-lu-	4a\	.
=84-	=84-	=84-	=84-	=84-	=84-	=84-	=84-
4F/	.	4a\	-le-	2f\	-ia,	2.fny/	-lu-
4G/	.	4g/	-lu-	.	.	.	.
4A/	.	4a\,>	-ia	2f\	al-	.	.
*	*	*	*ij	*	*	*	*
4B-/	.	4fny/	Al-	.	.	4g/,>	-ia,
=85-	=85-	=85-	=85-	=85-	=85-	=85-	=85-
1.c	.	1.cc	-le-	1.g	-le-	4a\	al-
.	.	.	.	.	.	4b-\	.
.	.	.	.	.	.	1cc\	-le-
=86-	=86-	=86-	=86-	=86-	=86-	=86-	=86-
!LO:TX:t=P:problem=kreska pseudotaktowa przerywana	!	!	!	!	!	!	!
2c/	-lu-	2cc\	-lu-	2g\	-lu-	2g/	-lu-
=87-	=87-	=87-	=87-	=87-	=87-	=87-	=87-
0f;;	-ia-	0a;;	-ia-	0f;;	-ia,-	0a;;	-ia,
*	*	*	*Xij	*	*	*	*
=-	=-	=-	=-	=-	=-	=-	=-
*-	*-	*-	*-	*-	*-	*-	*-
!!!system-decoration: [(g1)][(g2)]
!!!AIN: 4 empty
!!!ENC: Anastazja Marusiak
!!!END: 2021-10-08
!!!EED: Jędrzej Mróz
!!!ESR: 2021-10-21
!!!RDF**kern: > = above
!!!RDF**kern: < = below
